src/lib/assets/svg/save.svg

<svg width="18" height="18" viewBox="0 0 18 18" fill="none" xmlns="http://www.w3.org/2000/svg"><path d="M5 1V4C5 4.55228 5.44772 5 6 5H12C12.5523 5 13 4.55228 13 4V1M17 4.82843V15C17 16.1046 16.1046 17 15 17H3C1.89543 17 1 16.1046 1 15V3C1 1.89543 1.89543 1 3 1H13.1716C13.702 1 14.2107 1.21071 14.5858 1.58579L16.4142 3.41421C16.7893 3.78929 17 4.29799 17 4.82843ZM5 11V16C5 16.5523 5.44772 17 6 17H12C12.5523 17 13 16.5523 13 16V11C13 10.4477 12.5523 10 12 10H6C5.44772 10 5 10.4477 5 11Z" stroke="black" stroke-width="2" stroke-linecap="round" stroke-linejoin="round"/></svg>

<?xml version="1.0" encoding="utf-8"?>
<!-- Generator: Adobe Illustrator 27.4.0, SVG Export Plug-In . SVG Version: 6.00 Build 0)  -->
<svg version="1.1" id="Layer_1" xmlns="http://www.w3.org/2000/svg" xmlns:xlink="http://www.w3.org/1999/xlink" x="0px" y="0px"
	 viewBox="0 0 18 18" style="enable-background:new 0 0 18 18;" xml:space="preserve">
<style type="text/css">
	.st0{fill:none;stroke:#FFFFFF;stroke-width:2;stroke-linecap:round;stroke-linejoin:round;}
</style>
<path class="st0" d="M5,1v3c0,0.6,0.4,1,1,1h6c0.6,0,1-0.4,1-1V1 M17,4.8V15c0,1.1-0.9,2-2,2H3c-1.1,0-2-0.9-2-2V3c0-1.1,0.9-2,2-2
	h10.2c0.5,0,1,0.2,1.4,0.6l1.8,1.8C16.8,3.8,17,4.3,17,4.8z M5,11v5c0,0.6,0.4,1,1,1h6c0.6,0,1-0.4,1-1v-5c0-0.6-0.4-1-1-1H6
	C5.4,10,5,10.4,5,11z"/>
</svg>
